X: 050462
T: Eileen O'Keeffe's Polka
M: 2/4
L: 1/8
S: Maurice O'Keeffe via Paul de Grae (via IRTRAD)
R: polka
K: A
f | ec BA/B/ | cA F2 | EF AB | cB cf |
ec BA/B/ | cA F2 | EF AB |cA A2 :|
ce a2 | ce f2 | ce fa | ec BA |
ce a2 | ce fa | ec BA/B/ | cA A2 :|
